X:566
T: Yazui nayou jizui jian
N: C1986
O: China,Guangxi Quanzhou
S: II, 490]
R: Xiaodiao, Niuniuge]
M: 2/4
L: 1/16
K: G
G3A2B2B2 | A2BAG4 | G2A2B2B2 | A8 |
G3AB2B2 | A2BAG4 | E2E2G2GE | D8 |
A3AB2B2 | A2BAG4 | A2A2B2BG | A8 |
A3AB2BB | A2BAG4 | E2E2G2GE | D8

@@@ Tune index: 7121
